X: 48
M:2/4
L:1/16
K:A
uE2|\
((3efg)|\
.a2{b}(ag) .a.e.c.e | .a2.g2.f2.e2  | dfdB cecA | ((3Bcd)(BA) GAfg |
.a2{b}(ag) .a.e.c.e | aAgA fAeA     | dfdB cecA | BAGB A2:|


